HTML/img/Semaphore/Semaphore_Error.svg

<?xml version="1.0" encoding="UTF-8" standalone="no"?>
<!-- Created with Inkscape (http://www.inkscape.org/) -->
<svg
   xmlns:dc="http://purl.org/dc/elements/1.1/"
   xmlns:cc="http://web.resource.org/cc/"
   xmlns:rdf="http://www.w3.org/1999/02/22-rdf-syntax-ns#"
   xmlns:svg="http://www.w3.org/2000/svg"
   xmlns="http://www.w3.org/2000/svg"
   xmlns:sodipodi="http://inkscape.sourceforge.net/DTD/sodipodi-0.dtd"
   xmlns:inkscape="http://www.inkscape.org/namespaces/inkscape"
   width="600"
   height="500"
   id="svg2"
   sodipodi:version="0.32"
   inkscape:version="0.43"
   version="1.0"
   sodipodi:docbase="C:\Documents and Settings\David Nelson\Archives\Svg"
   sodipodi:docname="Semaphore Error.svg">
  <defs
     id="defs4">
    <marker
       inkscape:stockid="Arrow1Mend"
       orient="auto"
       refY="0.0"
       refX="0.0"
       id="Arrow1Mend"
       style="overflow:visible;">
      <path
         id="path11269"
         d="M 0.0,0.0 L 5.0,-5.0 L -12.5,0.0 L 5.0,5.0 L 0.0,0.0 z "
         style="fill-rule:evenodd;stroke:#000000;stroke-width:1.0pt;marker-start:none;"
         transform="scale(0.4) rotate(180)" />
    </marker>
    <marker
       inkscape:stockid="Arrow1Lstart"
       orient="auto"
       refY="0.0"
       refX="0.0"
       id="Arrow1Lstart"
       style="overflow:visible">
      <path
         id="path11278"
         d="M 0.0,0.0 L 5.0,-5.0 L -12.5,0.0 L 5.0,5.0 L 0.0,0.0 z "
         style="fill-rule:evenodd;stroke:#000000;stroke-width:1.0pt;marker-start:none"
         transform="scale(0.8)" />
    </marker>
    <marker
       inkscape:stockid="Arrow1Mstart"
       orient="auto"
       refY="0.0"
       refX="0.0"
       id="Arrow1Mstart"
       style="overflow:visible">
      <path
         id="path11272"
         d="M 0.0,0.0 L 5.0,-5.0 L -12.5,0.0 L 5.0,5.0 L 0.0,0.0 z "
         style="fill-rule:evenodd;stroke:#000000;stroke-width:1.0pt;marker-start:none"
         transform="scale(0.4)" />
    </marker>
  </defs>
  <sodipodi:namedview
     id="base"
     pagecolor="#ffffff"
     bordercolor="#666666"
     borderopacity="1.0"
     inkscape:pageopacity="0.0"
     inkscape:pageshadow="2"
     inkscape:zoom="1"
     inkscape:cx="300"
     inkscape:cy="250"
     inkscape:document-units="px"
     inkscape:current-layer="layer1"
     showgrid="true"
     inkscape:grid-points="true"
     inkscape:window-width="756"
     inkscape:window-height="707"
     inkscape:window-x="350"
     inkscape:window-y="32" />
  <metadata
     id="metadata7">
    <rdf:RDF>
      <cc:Work
         rdf:about="">
        <dc:format>image/svg+xml</dc:format>
        <dc:type
           rdf:resource="http://purl.org/dc/dcmitype/StillImage" />
      </cc:Work>
    </rdf:RDF>
  </metadata>
  <g
     inkscape:label="Layer 1"
     inkscape:groupmode="layer"
     id="layer1">
    <path
       sodipodi:type="arc"
       style="opacity:1;fill:#000000;fill-opacity:1;fill-rule:evenodd;stroke:none;stroke-width:2.5;stroke-miterlimit:4;stroke-dasharray:none;stroke-opacity:1"
       id="path7712"
       sodipodi:cx="250"
       sodipodi:cy="200"
       sodipodi:rx="25"
       sodipodi:ry="25"
       d="M 275 200 A 25 25 0 1 1  225,200 A 25 25 0 1 1  275 200 z"
       transform="translate(50,10)" />
    <rect
       style="opacity:1;fill:#000000;fill-opacity:1;fill-rule:evenodd;stroke:none;stroke-width:2.5;stroke-miterlimit:4;stroke-dasharray:none;stroke-opacity:1"
       id="rect7718"
       width="70"
       height="160"
       x="265"
       y="240"
       rx="20"
       ry="21.333334" />
    <path
       sodipodi:type="arc"
       style="opacity:1;fill:#ffff00;fill-opacity:0;fill-rule:evenodd;stroke:#000000;stroke-width:5;marker-start:url(#Arrow1Mstart);marker-end:url(#Arrow1Mend);stroke-miterlimit:4;stroke-dasharray:10, 5;stroke-dashoffset:0;stroke-opacity:1"
       id="path11296"
       sodipodi:cx="300"
       sodipodi:cy="210"
       sodipodi:rx="278"
       sodipodi:ry="278"
       d="M 72.275734,369.45425 A 278,278 0 0 1 22,209.99999"
       sodipodi:start="2.5307274"
       sodipodi:end="3.1415927"
       sodipodi:open="true" />
    <path
       d="M 578,210 A 278,278 0 0 1 527.72427,369.45425"
       sodipodi:ry="278"
       sodipodi:rx="278"
       sodipodi:cy="210"
       sodipodi:cx="300"
       id="path11298"
       style="opacity:1;fill:#ffff00;fill-opacity:0;fill-rule:evenodd;stroke:#000000;stroke-width:5;marker-start:url(#Arrow1Mstart);marker-end:url(#Arrow1Mend);stroke-miterlimit:4;stroke-dasharray:10, 5;stroke-dashoffset:0;stroke-opacity:1"
       sodipodi:type="arc"
       sodipodi:start="0"
       sodipodi:end="0.61086524"
       sodipodi:open="true" />
    <g
       id="g8688">
      <rect
         ry="10.000006"
         rx="10.000006"
         y="-363.55359"
         x="-9.9999352"
         height="20.000011"
         width="70.000046"
         id="rect7827"
         style="fill:#000000;fill-opacity:1;fill-rule:evenodd;stroke:none;stroke-width:2.5;stroke-miterlimit:4;stroke-dasharray:none;stroke-opacity:1"
         transform="matrix(-0.707107,0.707107,-0.707107,-0.707107,0,0)" />
      <rect
         y="-358.55359"
         x="50.000103"
         height="10.000006"
         width="200.00012"
         id="rect7829"
         style="fill:#000000;fill-opacity:1;fill-rule:evenodd;stroke:#000000;stroke-width:1;stroke-miterlimit:4;stroke-dasharray:none;stroke-opacity:1"
         transform="matrix(-0.707107,0.707107,-0.707107,-0.707107,0,0)" />
      <path
         style="fill:#ffff00;fill-opacity:1;fill-rule:evenodd;stroke:none;stroke-width:0.5;stroke-miterlimit:4;stroke-opacity:1"
         d="M 204.03804,430.31241 L 140.39841,493.95205 L 76.758785,430.31241 L 140.39841,366.67278 L 204.03804,430.31241 z "
         id="path7833" />
      <path
         id="path7835"
         d="M 140.39841,493.95205 L 76.758785,430.31241 L 140.39841,366.67278 L 140.39841,493.95205 z "
         style="fill:#ff0000;fill-opacity:1;fill-rule:evenodd;stroke:none;stroke-width:0.5;stroke-miterlimit:4;stroke-opacity:1" />
      <path
         id="path8319"
         d="M 204.03804,430.31241 L 140.39841,493.95205 L 76.758785,430.31241 L 140.39841,366.67278 L 204.03804,430.31241 z "
         style="fill:#ffff00;fill-opacity:0;fill-rule:evenodd;stroke:#000000;stroke-width:1;stroke-miterlimit:4;stroke-dasharray:none;stroke-opacity:1;stroke-linejoin:round" />
    </g>
    <g
       id="g8667">
      <rect
         ry="10.000006"
         rx="10.000006"
         y="-10.000076"
         x="-363.55344"
         height="20.000011"
         width="70.000046"
         id="rect7841"
         style="fill:#000000;fill-opacity:1;fill-rule:evenodd;stroke:none;stroke-width:2.5;stroke-miterlimit:4;stroke-dasharray:none;stroke-opacity:1"
         transform="matrix(-0.707107,-0.707107,0.707107,-0.707107,0,0)" />
      <rect
         y="-5.0000739"
         x="-303.55341"
         height="10.000006"
         width="200.00012"
         id="rect7843"
         style="fill:#000000;fill-opacity:1;fill-rule:evenodd;stroke:#000000;stroke-width:1;stroke-miterlimit:4;stroke-dasharray:none;stroke-opacity:1"
         transform="matrix(-0.707107,-0.707107,0.707107,-0.707107,0,0)" />
      <path
         style="fill:#ffff00;fill-opacity:1;fill-rule:evenodd;stroke:none;stroke-width:0.5;stroke-miterlimit:4;stroke-opacity:1"
         d="M 69.687615,204.03804 L 6.047985,140.39841 L 69.687615,76.758785 L 133.32725,140.39841 L 69.687615,204.03804 z "
         id="path7847" />
      <path
         id="path7849"
         d="M 6.047985,140.39841 L 69.687615,76.758785 L 133.32725,140.39841 L 6.047985,140.39841 z "
         style="fill:#ff0000;fill-opacity:1;fill-rule:evenodd;stroke:none;stroke-width:0.5;stroke-miterlimit:4;stroke-opacity:1" />
      <path
         id="path8321"
         d="M 69.687615,204.03804 L 6.047985,140.39841 L 69.687615,76.758785 L 133.32725,140.39841 L 69.687615,204.03804 z "
         style="fill:#ffff00;fill-opacity:0;fill-rule:evenodd;stroke:#000000;stroke-width:1;stroke-miterlimit:4;stroke-dasharray:none;stroke-opacity:1;stroke-linejoin:round" />
    </g>
    <g
       id="g8674">
      <rect
         style="fill:#000000;fill-opacity:1;fill-rule:evenodd;stroke:none;stroke-width:2.5;stroke-miterlimit:4;stroke-dasharray:none;stroke-opacity:1"
         id="rect7980"
         width="70.000046"
         height="20.000011"
         x="60.710766"
         y="414.26413"
         rx="10.000006"
         ry="10.000006"
         transform="matrix(0.707107,-0.707107,0.707107,0.707107,0,0)" />
      <rect
         style="fill:#000000;fill-opacity:1;fill-rule:evenodd;stroke:#000000;stroke-width:1;stroke-miterlimit:4;stroke-dasharray:none;stroke-opacity:1"
         id="rect7982"
         width="200.00012"
         height="10.000006"
         x="120.7108"
         y="419.26413"
         transform="matrix(0.707107,-0.707107,0.707107,0.707107,0,0)" />
      <path
         id="path7986"
         d="M 530.31228,204.03794 L 466.67265,140.39831 L 530.31228,76.758685 L 593.95191,140.39831 L 530.31228,204.03794 z "
         style="fill:#ffff00;fill-opacity:1;fill-rule:evenodd;stroke:none;stroke-width:0.5;stroke-miterlimit:4;stroke-opacity:1" />
      <path
         style="fill:#ff0000;fill-opacity:1;fill-rule:evenodd;stroke:none;stroke-width:0.5;stroke-miterlimit:4;stroke-opacity:1"
         d="M 466.67265,140.39831 L 530.31228,76.758685 L 593.95191,140.39831 L 466.67265,140.39831 z "
         id="path7988" />
      <path
         style="fill:#ffff00;fill-opacity:0;fill-rule:evenodd;stroke:#000000;stroke-width:1;stroke-miterlimit:4;stroke-dasharray:none;stroke-opacity:1;stroke-linejoin:round"
         d="M 530.31228,204.03794 L 466.67265,140.39831 L 530.31228,76.758685 L 593.95191,140.39831 L 530.31228,204.03794 z "
         id="path8323" />
    </g>
    <g
       id="g8681">
      <rect
         style="fill:#000000;fill-opacity:1;fill-rule:evenodd;stroke:none;stroke-width:2.5;stroke-miterlimit:4;stroke-dasharray:none;stroke-opacity:1"
         id="rect7994"
         width="70.000046"
         height="20.000011"
         x="414.26428"
         y="-80.710793"
         rx="10.000006"
         ry="10.000006"
         transform="matrix(0.707107,0.707107,-0.707107,0.707107,0,0)" />
      <rect
         style="fill:#000000;fill-opacity:1;fill-rule:evenodd;stroke:#000000;stroke-width:1;stroke-miterlimit:4;stroke-dasharray:none;stroke-opacity:1"
         id="rect7996"
         width="200.00012"
         height="10.000006"
         x="474.26434"
         y="-75.710793"
         transform="matrix(0.707107,0.707107,-0.707107,0.707107,0,0)" />
      <path
         id="path8000"
         d="M 395.96209,430.31228 L 459.60172,366.67265 L 523.24135,430.31228 L 459.60172,493.95191 L 395.96209,430.31228 z "
         style="fill:#ffff00;fill-opacity:1;fill-rule:evenodd;stroke:none;stroke-width:0.5;stroke-miterlimit:4;stroke-opacity:1" />
      <path
         style="fill:#ff0000;fill-opacity:1;fill-rule:evenodd;stroke:none;stroke-width:0.5;stroke-miterlimit:4;stroke-opacity:1"
         d="M 459.60172,366.67265 L 523.24135,430.31228 L 459.60172,493.95191 L 459.60172,366.67265 z "
         id="path8002" />
      <path
         style="fill:#ffff00;fill-opacity:0;fill-rule:evenodd;stroke:#000000;stroke-width:1;stroke-miterlimit:4;stroke-dasharray:none;stroke-opacity:1;stroke-linejoin:round"
         d="M 395.96209,430.31228 L 459.60172,366.67265 L 523.24135,430.31228 L 459.60172,493.95191 L 395.96209,430.31228 z "
         id="path8325" />
    </g>
  </g>
</svg>

<svg xmlns="http://www.w3.org/2000/svg" width="600" height="500" version="1">
    <defs>
        <marker id="b" orient="auto" overflow="visible">
            <path fill-rule="evenodd" stroke="#000" stroke-width=".4pt" d="M0 0l-2 2 7-2-7-2 2 2z"/>
        </marker>
        <marker id="a" orient="auto" overflow="visible">
            <path fill-rule="evenodd" stroke="#000" stroke-width=".4pt" d="M0 0l2-2-7 2 7 2-2-2z"/>
        </marker>
    </defs>
    <path fill-rule="evenodd" d="M325 210a25 25 0 1 1-50 0 25 25 0 1 1 50 0z"/>
    <rect width="70" height="160" x="265" y="240" fill-rule="evenodd" rx="20" ry="21.333"/>
    <path fill="none" stroke="#000" stroke-dasharray="10 5" stroke-width="5" marker-end="url(#b)" marker-start="url(#a)" d="M72.276 369.454A278 278 0 0 1 22 210"/>
    <path fill="none" stroke="#000" stroke-dasharray="10 5" stroke-width="5" marker-end="url(#b)" marker-start="url(#a)" d="M578 210a278 278 0 0 1-50.276 159.454"/>
    <rect width="70" height="20" x="-10" y="-363.554" fill-rule="evenodd" rx="10" ry="10" transform="rotate(135)"/>
    <path fill-rule="evenodd" stroke="#000" d="M218.18 288.891L76.76 430.313l-7.072-7.071L211.11 281.82z"/>
    <path fill="#ff0" fill-rule="evenodd" d="M204.038 430.312l-63.64 63.64-63.64-63.64 63.64-63.64 63.64 63.64z"/>
    <path fill="red" fill-rule="evenodd" d="M140.398 493.952l-63.64-63.64 63.64-63.64v127.28z"/>
    <path fill="none" stroke="#000" stroke-linejoin="round" d="M204.038 430.312l-63.64 63.64-63.64-63.64 63.64-63.64 63.64 63.64z"/>
    <g>
        <rect width="70" height="20" x="-363.553" y="-10" fill-rule="evenodd" rx="10" ry="10" transform="rotate(-135)"/>
        <path fill-rule="evenodd" stroke="#000" d="M211.109 218.18L69.688 76.759l7.07-7.071 141.422 141.42z"/>
        <path fill="#ff0" fill-rule="evenodd" d="M69.688 204.038l-63.64-63.64 63.64-63.64 63.64 63.64-63.64 63.64z"/>
        <path fill="red" fill-rule="evenodd" d="M6.048 140.398l63.64-63.64 63.64 63.64H6.047z"/>
        <path fill="none" stroke="#000" stroke-linejoin="round" d="M69.688 204.038l-63.64-63.64 63.64-63.64 63.64 63.64-63.64 63.64z"/>
    </g>
    <g>
        <rect width="70" height="20" x="60.711" y="414.264" fill-rule="evenodd" rx="10" ry="10" transform="rotate(-45)"/>
        <path fill-rule="evenodd" stroke="#000" d="M381.82 211.109L523.242 69.688l7.07 7.07-141.42 141.422z"/>
        <path fill="#ff0" fill-rule="evenodd" d="M530.312 204.038l-63.64-63.64 63.64-63.64 63.64 63.64-63.64 63.64z"/>
        <path fill="red" fill-rule="evenodd" d="M466.673 140.398l63.64-63.64 63.639 63.64h-127.28z"/>
        <path fill="none" stroke="#000" stroke-linejoin="round" d="M530.312 204.038l-63.64-63.64 63.64-63.64 63.64 63.64-63.64 63.64z"/>
    </g>
    <g>
        <rect width="70" height="20" x="414.264" y="-80.711" fill-rule="evenodd" rx="10" ry="10" transform="rotate(45)"/>
        <path fill-rule="evenodd" stroke="#000" d="M388.891 281.82L530.313 423.24l-7.071 7.071L381.82 288.891z"/>
        <path fill="#ff0" fill-rule="evenodd" d="M395.962 430.312l63.64-63.64 63.64 63.64-63.64 63.64-63.64-63.64z"/>
        <path fill="red" fill-rule="evenodd" d="M459.602 366.673l63.64 63.64-63.64 63.639v-127.28z"/>
        <path fill="none" stroke="#000" stroke-linejoin="round" d="M395.962 430.312l63.64-63.64 63.64 63.64-63.64 63.64-63.64-63.64z"/>
    </g>
</svg>
